X: 1
T: the Gallant Weaver
O: Arr Peter White
R: march
B: Hugh Foss "DANCES to SONG TUNES" 1966 (music: Peter White)
B: Drewry, Bon Accord
Z: 2010 by John Chambers <jc:trillian.mit.edu>
M: C
L: 1/8
K: D
FG \
| "D"A2AG F2GA | "G"B2B2 "D"A3A | "G"Bcd2  "D"c2d2 | "Em"g2f2 "A7"e2zA |
| "D"A2AG F2GA | "G"BcdB "D"A3A | "G"Bcd2 "A7"c2de | "D"f2 "A7"e2 "D"d2 ||
de \
| "D"f2gf "F#7"e2fe | "Bm"dbed "D"dcBA | "G"Bcd2 "D"c2d2 | "Em"g2f2 "A7"e3A |
| "D"ABAG FGA2 | "G"B2B2 "D"A2A2 | "G"Bcd2 "A7"c2de | "D"f2 "A7"e2 "D"d2 |]
